X:1
T:Title
%%score { 1 | 2 }
L:1/8
M:2/4
K:G
V:1 treble nm="Grand Piano"
V:2 bass 
V:1
 z2 z[Q:1/4=85] D | GD GB | d>e dB | [Fd][Fc] EF |[M:3/8] A>GD |[M:1/8] D |[M:2/4] GD GB | d>e dB | %8
 Ad e>^c |[M:3/8] [Fd]3 |[M:1/8] d |[M:2/4] [Fd][Fc] EF | G>A BB | [^Ge][Gd] [Gc][GB] | %14
[M:3/8] A>Bc |[M:1/8] [Ac] |[M:2/4] [Ad][FA] [GB][GB] |[M:9/16] [Gc][Gd]/-[Gd]/[Ge]-[Ge]/[Ge] | %18
[M:2/4] [Gd][DGB] [CFA]>[B,DG] |[M:3/8] [B,DG]3 |] %20
V:2
 z2 z D, | G,D, G,B, | D>E D[G,DG] | [D,D][D,D] [D,C][D,CD] |[M:3/8] [G,B,D]>[G,B,D][G,B,] | %5
[M:1/8] D, |[M:2/4] G,D, G,B, | D>E D[G,DG] | [A,DF][A,DF] [A,^CG]>[A,EG] |[M:3/8][K:bass] [D,D]3 | %10
[M:1/8] [D,D] |[M:2/4] [D,A,][D,A,] [D,C][D,CD] | [G,B,D]>[G,CD] [G,DG][G,DG] | %13
 [E,E][E,E] [E,E][E,D] |[M:3/8] [A,CE]>[K:treble][A,DE][A,EA] |[M:1/8][K:bass] [G,E] | %16
[M:2/4] [F,D][D,D] [G,D][=F,D] |[M:9/16] [E,C][D,B,]/-[D,B,]/[C,C]-[C,C]/[C,C] | %18
[M:2/4] [D,B,]D, D,>G,, |[M:3/8] G,,3 |] %20

